!!!COM: Palestrina, Giovanni Perluigi da
!!!OPR: Octavi toni
!!!OTL: Agnus I
**kern	**kern	**kern	**kern	**kern	**kern
*Ibass	*Itenor	*Itenor	*Icalto	*Icant	*Icant
!Bassus	!Tenor 2	!Tenor 1	!Altus	!Cantus 2	!Cantus 1
*clefF4	*clefGv2	*clefGv2	*clefG2	*clefG2	*clefG2
*k[]	*k[]	*k[]	*k[]	*k[]	*k[]
*G:mix	*G:mix	*G:mix	*G:mix	*G:mix	*G:mix
*M4/2	*M4/2	*M4/2	*M4/2	*M4/2	*M4/2
=1	=1	=1	=1	=1	=1
0r	1r	1d	0r	0r	0r
.	1d	2.G	.	.	.
.	.	4A	.	.	.
=2	=2	=2	=2	=2	=2
1r	2.G	4B	0r	0r	0r
.	.	4c	.	.	.
.	.	1d	.	.	.
.	4A	.	.	.	.
1G	4B	.	.	.	.
.	4c	.	.	.	.
.	2d	2B	.	.	.
=3	=3	=3	=3	=3	=3
2.C	2e	2c	0r	0r	1r
.	1c	1e	.	.	.
4D	.	.	.	.	.
4E	.	.	.	.	1g
4F	.	.	.	.	.
2G	2B	2d	.	.	.
=4	=4	=4	=4	=4	=4
2.A	2.c	2c	0r	0r	1e
.	.	2A	.	.	.
4G	4B	.	.	.	.
2F	1A	2c	.	.	1f
2D	.	[2d	.	.	.
=5	=5	=5	=5	=5	=5
2.E	1G	4d]	0r	1r	1e
.	.	4c	.	.	.
.	.	1c	.	.	.
4F	.	.	.	.	.
1G	2r	.	.	1g	1d
.	[2G	2B	.	.	.
=6	=6	=6	=6	=6	=6
2C	2G]	1c	1r	1e	1g
2E	1c	.	.	.	.
1D	.	1F	1d	1f	2r
.	2B	.	.	.	2d
=7	=7	=7	=7	=7	=7
1C	1c	2r	2.G	1e	2e
.	.	2C	.	.	1g
.	.	.	4A	.	.
1r	2B	1D	4B	1d	.
.	.	.	4c	.	.
.	2A	.	2d	.	2f
=8	=8	=8	=8	=8	=8
0r	1c	1C	2e	1g	1e
.	.	.	1c	.	.
.	1d	1G	.	1g	2d
.	.	.	2B	.	[2g
=9	=9	=9	=9	=9	=9
2r	2r	1D	1A	1r	2g]
2D	2d	.	.	.	2f#
2E	2c	1G	1G	1g	2g
[2G	2B	.	.	.	[2e
=10	=10	=10	=10	=10	=10
2G]	2A	0r	2r	1a	4e]
.	.	.	.	.	4d
2F	2D	.	2A	.	1d
1E	1G	.	2B	1g	.
.	.	.	2G	.	2c#
=11	=11	=11	=11	=11	=11
1D	2r	2r	1A	1f	1d
.	2d	2D	.	.	.
1r	2c	2E	2.G	1e	1r
.	[2B	[2G	.	.	.
.	.	.	4A	.	.
=12	=12	=12	=12	=12	=12
0r	2B]	2G]	4B	1d	2r
.	.	.	4c	.	.
.	2A	2F	2d	.	2a
.	[1e	2E	[1G	1g	2b
.	.	4C	.	.	[2cc
.	.	4D	.	.	.
=13	=13	=13	=13	=13	=13
1r	2e]	4E	1G]	1g	2cc]
.	.	4F	.	.	.
.	2d	2G	.	.	2b
2r	2.d	1D	1A	1f#	2a
2D	.	.	.	.	[2dd
.	4c	.	.	.	.
=14	=14	=14	=14	=14	=14
1E	2B	1G	2G	1g	2dd]
.	2e	.	2.g	.	1cc
1G	1d	1r	.	1g	.
.	.	.	4f	.	.
.	.	.	2d	.	2b
=15	=15	=15	=15	=15	=15
1C	1c	2r	1e	1r	2cc
.	.	2c	.	.	2cc
1r	1r	2d	2r	1f	2a
.	.	2d	2d	.	2b
=16	=16	=16	=16	=16	=16
0r	0r	2A	2e	1a	2cc
.	.	1c	2A	.	4c
.	.	.	.	.	4d
.	.	.	2c	1g	4e
.	.	.	.	.	4f
.	.	2B	2d	.	[2g
=17	=17	=17	=17	=17	=17
1r	1c	1A	2e	1a	2g]
.	.	.	2c	.	2f#
2r	2d	1G	1B	1b	2.g
2G	2d	.	.	.	.
.	.	.	.	.	4f
=18	=18	=18	=18	=18	=18
2A	2c	0r	1r	1cc	2e
2A	1e	.	.	.	2a
2E	.	.	1G	1b	1g
[2G	2d	.	.	.	.
=19	=19	=19	=19	=19	=19
2G]	1d	1r	2A	1a	2r
2F	.	.	2A	.	2d
1E	1G	2r	2B	1g	2e
.	.	2B	2e	.	2e
=20	=20	=20	=20	=20	=20
1D	0r	2d	2A	1a	1f
.	.	2d	2d	.	.
2r	.	2A	2c	1a	2e
2F	.	[2c	2f	.	2a
=21	=21	=21	=21	=21	=21
2G	0r	2c]	2e	1r	1g
2G	.	2B	4d	.	.
.	.	.	4c	.	.
2D	.	2.A	2d	1a	1f
[2F	.	.	[2c	.	.
.	.	4B	.	.	.
=22	=22	=22	=22	=22	=22
2F]	2r	1c	4c]	1g	0r
.	.	.	4d	.	.
2E	2c	.	2e	.	.
1D	2d	2F	2.A	1f	.
.	2d	2D	.	.	.
.	.	.	4B	.	.
=23	=23	=23	=23	=23	=23
2.C	2G	2.E	0c	1e	2r
.	1c	.	.	.	2g
4BB	.	4D	.	.	.
1AA	.	1C	.	1f	2a
.	2A	.	.	.	2a
=24	=24	=24	=24	=24	=24
1GG	2.B	1D	2r	1g	2d
.	.	.	2G	.	2.dd
.	4G	.	.	.	.
1r	1A	1r	2c	1f#	.
.	.	.	.	.	4cc
.	.	.	2c	.	[2cc
=25	=25	=25	=25	=25	=25
1r	1G	2r	1d	1g	2cc]
.	.	1G	.	.	2b
[1C	1r	.	2c	1g	1cc
.	.	2G	[2e	.	.
=26	=26	=26	=26	=26	=26
2C]	1.c	2G	2e]	1r	2g
2C	.	2G	2e	.	1g
2C	.	[1E	2e	1g	.
2C	2c	.	2e	.	2e
=27	=27	=27	=27	=27	=27
1AA	2c	2E]	2e	1cc	1a
.	2A	2F#	2c	.	.
1GG	4B	1G	2r	1b	1d
.	4A	.	.	.	.
.	4G	.	[2g	.	.
.	4F	.	.	.	.
=28	=28	=28	=28	=28	=28
2r	2E	1C	2g]	1cc	4e
.	.	.	.	.	4f
1G	2e	.	2g	.	4g
.	.	.	.	.	4a
.	2.d	2.G	1g	1dd	4b
.	.	.	.	.	4cc
2G	.	.	.	.	2b
.	4c	4A	.	.	.
=29	=29	=29	=29	=29	=29
2G	4B	4B	1d	1dd	1g
.	4A	4c	.	.	.
2G	2B	2d	.	.	.
1E	1G	1e	[1g	1cc#	1r
=30	=30	=30	=30	=30	=30
[0D	0r	1A	2g]	1dd	2r
.	.	.	4f	.	1a
.	.	.	4e	.	.
.	.	2r	1f	1dd	.
.	.	4D	.	.	2a
.	.	4E	.	.	.
=31	=31	=31	=31	=31	=31
0D]	1.A	4F	4d	1r	2a
.	.	4G	4e	.	.
.	.	2A	4f	.	2a
.	.	.	4g	.	.
.	.	2D	[1a	1dd	1f
.	2A	[2d	.	.	.
=32	=32	=32	=32	=32	=32
1r	2A	2d]	1a]	1ee	1e
.	2A	2c#	.	.	.
1D	1F	2d	2r	1dd	2.f
.	.	4A	2d	.	.
.	.	4B	.	.	4g
=33	=33	=33	=33	=33	=33
1AA	1E	4c	2e	1cc	1a
.	.	4d	.	.	.
.	.	1e	1A	.	.
1E	1r	.	.	1b	1r
.	.	2B	2G#	.	.
=34	=34	=34	=34	=34	=34
1F#	1D	2.d	2A	1a	2r
.	.	.	2.d	.	2a
.	.	4c	.	.	.
1G	1d	1B	.	1g	1b
.	.	.	4c	.	.
.	.	.	4B	.	.
.	.	.	8c	.	.
.	.	.	8d	.	.
=35	=35	=35	=35	=35	=35
1C	2c	1G	1e	1g	2cc
.	2c	.	.	.	2g
1D	1A	2r	2d	1f#	2.dd
.	.	[2d	2A	.	.
.	.	.	.	.	4cc
=36	=36	=36	=36	=36	=36
0GG	2.G	4d]	1B	1g	4b
.	.	4c	.	.	4a
.	.	4B	.	.	4g
.	4A	4A	.	.	4f
.	1B	4G	1r	1g	4e
.	.	4F	.	.	4d
.	.	4E	.	.	[2d
.	.	4D	.	.	.
=37	=37	=37	=37	=37	=37
1r	2r	1E	2.G	1r	2d]
.	2.G	.	.	.	2c#
.	.	.	4A	.	.
[1GG	.	1D	4B	1g	2d
.	4A	.	4c	.	.
.	4B	.	[2d	.	4g
.	4c	.	.	.	4a
=38	=38	=38	=38	=38	=38
1GG]	2d	1G	2d]	1g	4b
.	.	.	.	.	4cc
.	2D	.	2B	.	1dd
1D	2F	1A	1d	1f	.
.	2D	.	.	.	2a
=39	=39	=39	=39	=39	=39
1C	2.E	2r	1G	1e	1cc
.	.	4G	.	.	.
.	4F	4A	.	.	.
[1GG	1G	4B	2.g	1d	[1b
.	.	4c	.	.	.
.	.	2d	.	.	.
.	.	.	8f	.	.
.	.	.	8e	.	.
=40	=40	=40	=40	=40	=40
2GG]	0G	2B	2d	1g	2b]
4C	.	1c	1e	.	4e
4D	.	.	.	.	4f
4E	.	.	.	1g	4g
4F	.	.	.	.	4a
2G	.	2B	[2d	.	4b
.	.	.	.	.	4cc
=41	=41	=41	=41	=41	=41
1D	2r	1A	4d]	1f#	1dd
.	.	.	8c	.	.
.	.	.	8B	.	.
.	2.d	.	2A	.	.
[1GG	.	2G	2B	1g	[1b
.	4c	.	.	.	.
.	4B	[2d	4G	.	.
.	4A	.	4A	.	.
=42	=42	=42	=42	=42	=42
1GG]	2G	4d]	4B	[0g	1b]
.	.	4c	4c	.	.
.	2D	4B	2d	.	.
.	.	4A	.	.	.
2r	2.E	2G	2B	.	1r
4C	.	2c	[2e	.	.
4D	4F	.	.	.	.
=43	=43	=43	=43	=43	=43
4E	1G	2.B	2e]	1g_	2r
4F	.	.	.	.	.
1G	.	.	4d	.	4g
.	.	4c	4c	.	4a
.	1G	1d	1B	1g_	4b
.	.	.	.	.	4cc
2GG	.	.	.	.	2dd
=44	=44	=44	=44	=44	=44
1C	2.E	2c	2G	0g]	2ee
.	.	2e	2.g	.	1cc
.	4F	.	.	.	.
1GG	[1G	1d	.	.	.
.	.	.	4f	.	.
.	.	.	2d	.	2b
=45	=45	=45	=45	=45	=45
1C	1G]	1c	1e	[0g	1cc
[1GG	[1G	[1B	[1d	.	[1dd
=46	=46	=46	=46	=46	=46
1GG]	1G]	1B]	1d]	1g]	1dd]
==	==	==	==	==	==
*-	*-	*-	*-	*-	*-
!!!CDT: 1525/^1526/-1594/2/2
!!!OCY: Italia
!!!AGN: Mass (Tenor)
!!!AST: renaissance, vocal
!!!ASW: Hymn
!!!PWK: Masses, Book 11
!!!RNB: Cadence finals: A,C
!!!YOR: Le Opere Complete, v. 28, p. 114
!!!YOO: Rome, Italy: Fratelli Scalera
!!!END: 1992//
!!!EED: John Miller
!!!YEC: Copyright 2000, John Miller
!!!YEN: United States of America
!!!YEM: Rights to all derivative electronic formats reserved.
!!!YEM: Refer to licensing agreement for further details.
!!!YEM: This file must be accompanied by the licensing agreement.
!!!YEM: A copy of the licensing agreement may be found at http://www.music-cog.ohio-state.edu/HumdrumDatabases/Palestrina/license.txt
!!!EMD: converted to Humdrum by Bret Aarden
